src/icons/svg/dark.svg

<svg width="20" height="20" viewBox="0 0 20 20" fill="none" xmlns="http://www.w3.org/2000/svg">
<mask id="path-1-inside-1_399_892" fill="white">
<path fill-rule="evenodd" clip-rule="evenodd" d="M15.65 12.8845C15.7232 12.7513 15.7598 12.6847 15.7755 12.6227C15.8442 12.3513 15.6876 12.0866 15.4167 12.0161C15.3548 12 15.2365 12 15 12C12.2386 12 10 9.76142 10 7C10 6.09908 10.2383 5.25382 10.6552 4.52378C10.7844 4.29765 10.6481 4 10.3877 4C7.074 4 4.38773 6.68628 4.38773 9.99997C4.38773 13.3137 7.074 15.9999 10.3877 15.9999C12.6558 15.9999 14.63 14.7414 15.65 12.8845Z"/>
</mask>
<path d="M10.6552 4.52378L11.6973 5.11894L10.6552 4.52378ZM15.4167 12.0161L15.1146 13.1775L15.4167 12.0161ZM15.65 12.8845L14.5983 12.3068L15.65 12.8845ZM15.7755 12.6227L16.9389 12.917L15.7755 12.6227ZM15 10.8C12.9013 10.8 11.2 9.09868 11.2 7H8.8C8.8 10.4242 11.5758 13.2 15 13.2V10.8ZM11.2 7C11.2 6.31329 11.3811 5.6725 11.6973 5.11894L9.61323 3.92863C9.09547 4.83513 8.8 5.88487 8.8 7H11.2ZM5.58773 9.99997C5.58773 7.34902 7.73675 5.2 10.3877 5.2V2.8C6.41126 2.8 3.18773 6.02354 3.18773 9.99997H5.58773ZM10.3877 14.7999C7.73675 14.7999 5.58773 12.6509 5.58773 9.99997H3.18773C3.18773 13.9764 6.41126 17.1999 10.3877 17.1999V14.7999ZM14.5983 12.3068C13.7806 13.7954 12.2006 14.7999 10.3877 14.7999V17.1999C13.1111 17.1999 15.4795 15.6874 16.7018 13.4623L14.5983 12.3068ZM11.6973 5.11894C11.9673 4.64606 11.9634 4.09308 11.7445 3.64767C11.5167 3.18448 11.0285 2.8 10.3877 2.8V5.2C10.0073 5.2 9.71741 4.96435 9.59066 4.70651C9.47264 4.46646 9.47229 4.17538 9.61323 3.92863L11.6973 5.11894ZM15 13.2C15.0601 13.2 15.1082 13.2 15.1495 13.2002C15.1911 13.2005 15.2187 13.2009 15.2377 13.2015C15.258 13.2021 15.2569 13.2025 15.2436 13.2013C15.236 13.2005 15.2211 13.1989 15.2009 13.1957C15.1809 13.1925 15.1511 13.1869 15.1146 13.1775L15.7188 10.8547C15.5437 10.8092 15.3771 10.8046 15.3099 10.8026C15.2206 10.7999 15.1103 10.8 15 10.8V13.2ZM16.7018 13.4623C16.7385 13.3956 16.876 13.1656 16.9389 12.917L14.6122 12.3283C14.6232 12.2848 14.6354 12.2505 14.6446 12.2275C14.649 12.2163 14.6527 12.2079 14.655 12.2028C14.6573 12.1978 14.6585 12.1953 14.6582 12.1959C14.6579 12.1965 14.6565 12.1993 14.6537 12.2048C14.6508 12.2103 14.6469 12.2176 14.6417 12.2274C14.6364 12.2371 14.6303 12.2483 14.623 12.2618C14.6156 12.2753 14.6076 12.2899 14.5983 12.3068L16.7018 13.4623ZM15.1146 13.1775C14.7471 13.0819 14.5191 12.6964 14.6122 12.3283L16.9389 12.917C17.1694 12.0062 16.6281 11.0913 15.7188 10.8547L15.1146 13.1775Z" fill="#19191C" mask="url(#path-1-inside-1_399_892)"/>
</svg>

<svg xmlns="http://www.w3.org/2000/svg" width="20" height="20" fill="none"><mask id="a" fill="#fff"><path fill-rule="evenodd" d="M15.65 12.885c.073-.134.11-.2.125-.262a.494.494 0 0 0-.358-.607C15.355 12 15.237 12 15 12a5 5 0 0 1-4.345-7.476c.13-.226-.007-.524-.267-.524a6 6 0 1 0 5.262 8.885" clip-rule="evenodd"/></mask><path fill="#19191C" d="m10.655 4.524 1.042.595zm4.762 7.492-.302 1.162zm.233.868-1.052-.577zm.125-.261 1.164.294zM15 10.8A3.8 3.8 0 0 1 11.2 7H8.8a6.2 6.2 0 0 0 6.2 6.2zM11.2 7c0-.687.181-1.327.497-1.881l-2.084-1.19A6.2 6.2 0 0 0 8.8 7zm-5.612 3a4.8 4.8 0 0 1 4.8-4.8V2.8a7.2 7.2 0 0 0-7.2 7.2zm4.8 4.8a4.8 4.8 0 0 1-4.8-4.8h-2.4a7.2 7.2 0 0 0 7.2 7.2zm4.21-2.493a4.8 4.8 0 0 1-4.21 2.493v2.4a7.2 7.2 0 0 0 6.314-3.738zm-2.9-7.188a1.57 1.57 0 0 0 .046-1.471 1.51 1.51 0 0 0-1.356-.848v2.4a.89.89 0 0 1-.797-.493.83.83 0 0 1 .022-.778zM15 13.2l.238.002h.006a1 1 0 0 1-.13-.024l.605-2.323c-.175-.046-.342-.05-.41-.052-.088-.003-.199-.003-.309-.003zm1.702.262c.036-.066.174-.296.237-.545l-2.327-.589a1 1 0 0 1 .043-.125l.003-.007-.004.009-.012.022-.019.035-.025.045zm-1.587-.284a.707.707 0 0 1-.503-.85l2.327.589c.23-.91-.31-1.826-1.22-2.062z" mask="url(#a)"/></svg>
